X:1
T:Title
%%score { ( 1 4 ) | ( 2 3 ) }
L:1/8
Q:1/4=100
M:4/4
K:Bb
V:1 treble nm="Grand Piano"
V:4 treble 
V:2 bass 
V:3 bass 
V:1
 [Fd]2 [Fc][FB] AG F2 | [Bf][Fd][Fd]c [DFB]4 | z4 z2 B2 | [=EB]2 [FA]G A4 | A2 BF E2 E2 | %5
w: J.~E.~Gould * * * * *|||||
 DFFG [B,D]2 C2 | A2 Be [Fd][_Af][Ge][EGc] | B2 cA [DFB]4 |] %8
w: |||
V:2
 [B,,B,]2 [C,A,][D,B,] [E,B,E]2 [D,B,]2 | .D2 F,2 z4 | G,2 G,G, F,2 E,D, | [C,C]2 z =E [F,CF]4 | %4
 [F,E]2 [F,D][F,D] [F,C]2 [F,C]2 | B,2 B,2 F,4 | z4[K:treble][K:bass] B,4 | z2 [F,F]2 z4 |] %8
V:3
 x8 | F,-[F,B,] z E B,,4 | x8 | z2 [C,C]2 z4 | x8 | B,,D,D,E, z2 A,2 | %6
 [F,CE]2[K:treble] [G,B,D][A,CF][K:bass] z D,E,E, | [F,DF]2 EC B,,4 |] %8
V:4
 x8 | x8 | [B,DB]2 [B,DB][B,DB] [DFB]2 [EG][B,F] | x8 | x8 | x8 | x8 | x8 |] %8

